!!!!SEGMENT: pl-sa--l-1643--033_anonim--vulnerasti-cor-meum-soror-mea-sponsa.krn
!!!cenid: 16xx:1388
!!!COM: Anonim
!!!COM-rismid: pe30004985
!!!CDT:
!!!CNT:
!!!OTL: Vulnerasti cor meum soror mea sponsa
!!!PDT:
!!!AGN: Sacred
!!!SMS-siglum: PL-SA
!!!SMS-shelfmark: L 1643
!!!SMS-shelfwork: 033 W
!!!SMS-variant:
!!!SMS-altvar:
!!!NIFC-rismid: 1001064782
!!!URL-scan: http://repozytorium.nifc.pl/skany/pl-sa-nut--l1643
!!!ONB-nifc: UWAGA: 8 ksiąg. Primi chori: 1mus Cantus (57-58), C 2dus (56-57), C 3tius (55-56), Bassus (52-53); Secondi chori: Primus Cantus (54-56), C 2dus (56-57), Altus (56-57), Bassus (56-57). UWAGA: metrum 2/2. Nie dodawać pustych linii, chyba że w rękopisie pojawiają się dodatkowe oznaczenia dotyczące pełnej obsady (a 4, a 8 itp.)
!!!AIN: 8 empty
!!!key:
**kern	**text	**kern	**text	**kern	**text	**kern	**text	**kern	**text	**kern	**text	**kern	**text	**kern	**text
*group1	*	*group1	*	*group1	*	*group1	*	*group1	*	*group1	*	*group1	*	*group1	*
*part8	*part8	*part7	*part7	*part6	*part6	*part5	*part5	*part4	*part4	*part3	*part3	*part2	*part2	*part1	*part1
*staff8	*staff8	*staff7	*staff7	*staff6	*staff6	*staff5	*staff5	*staff4	*staff4	*staff3	*staff3	*staff2	*staff2	*staff1	*staff1
*Iempty	*	*Iempty	*	*Iempty	*	*Iempty	*	*Iempty	*	*Iempty	*	*Iempty	*	*Iempty	*
*I"Baſsus 2di Chori.	*	*I"Altus secundi Chori.	*	*I"Cantus 2dus Secundi Chori.	*	*I"Primus Cantus 2di Chori	*	*I"Bassus Primi Chori.	*	*I"Cantus 3tius Primi Chori	*	*I"Cantus 2dus Primi Chori.	*	*I"Im(us) Cantus Primi Chori	*
*I'[Coro 2 B]	*	*I'[Coro 2 A]	*	*I'[Coro 2 S 2]	*	*I'[Coro 2 S 1]	*	*I'[Coro 1 B]	*	*I'[Coro 1 S 3]	*	*I'[Coro 1 S 2]	*	*I'[Coro 1 S 1]	*
*clefC3	*	*clefC2	*	*clefC1	*	*clefG2	*	*clefC3	*	*clefC2	*	*clefC1	*	*clefG2	*
*k[b-]	*	*k[b-]	*	*k[b-]	*	*k[b-]	*	*k[b-]	*	*k[b-]	*	*k[b-]	*	*k[b-]	*
*g:	*	*g:	*	*g:	*	*g:	*	*g:	*	*g:	*	*g:	*	*g:	*
*M2/2	*	*M2/2	*	*M2/2	*	*M2/2	*	*M2/2	*	*M2/2	*	*M2/2	*	*M2/2	*
*met(C|)	*	*met(C|)	*	*met(C|)	*	*met(C|)	*	*met(C|)	*	*met(C|)	*	*met(C|)	*	*met(C|)	*
=1-	=1-	=1-	=1-	=1-	=1-	=1-	=1-	=1-	=1-	=1-	=1-	=1-	=1-	=1-	=1-
00r	.	00r	.	00r	.	00r	.	1g	Vul-	1b-	Vul-	2dd\	Vul-	1.dd	Vul-
.	.	.	.	.	.	.	.	.	.	.	.	2b-\	-ne-	.	.
=2-	=2-	=2-	=2-	=2-	=2-	=2-	=2-	=2-	=2-	=2-	=2-	=2-	=2-	=2-	=2-
.	.	.	.	.	.	.	.	1d	-ne-	1a	-ne-	2.dd\	-ra-	.	.
.	.	.	.	.	.	.	.	.	.	.	.	.	.	2a/	-ne-
.	.	.	.	.	.	.	.	.	.	.	.	4cc\	-sti	.	.
=3-	=3-	=3-	=3-	=3-	=3-	=3-	=3-	=3-	=3-	=3-	=3-	=3-	=3-	=3-	=3-
.	.	.	.	.	.	.	.	2f\	-ra-	1.b-	-ra-	2b-\	cor	1.dd	-ra-
.	.	.	.	.	.	.	.	4f\	-sti	.	.	4a\	.	.	.
.	.	.	.	.	.	.	.	4e-X\	cor	.	.	4g/	.	.	.
=4-	=4-	=4-	=4-	=4-	=4-	=4-	=4-	=4-	=4-	=4-	=4-	=4-	=4-	=4-	=4-
.	.	.	.	.	.	.	.	1d	me-	.	.	1a	me-	.	.
.	.	.	.	.	.	.	.	.	.	4a\	-sti	.	.	4cc\	-sti
.	.	.	.	.	.	.	.	.	.	4g\	cor	.	.	4b-/	cor
=5-	=5-	=5-	=5-	=5-	=5-	=5-	=5-	=5-	=5-	=5-	=5-	=5-	=5-	=5-	=5-
!	!	!	!	!	!	!	!	!	!	!LO:TX:t=P:problem=# below	!	!	!	!	!
1r	.	1r	.	1r	.	1r	.	1d	-um	2f#X\	me-	1a	-um	2a/	me-
!	!	!	!	!	!	!	!	!	!	!LO:TX:t=P:problem=# below	!	!	!	!	!
.	.	.	.	.	.	.	.	.	.	2f#X\	-um	.	.	2a/	-u(m)
=6-	=6-	=6-	=6-	=6-	=6-	=6-	=6-	=6-	=6-	=6-	=6-	=6-	=6-	=6-	=6-
1g	Vul-	1b-	Vul-	2dd\	Vul-	1.dd	Vul-	00r	.	00r	.	00r	.	00r	.
.	.	.	.	2b-\	-ne-	.	.	.	.	.	.	.	.	.	.
=7-	=7-	=7-	=7-	=7-	=7-	=7-	=7-	=7-	=7-	=7-	=7-	=7-	=7-	=7-	=7-
1d	-ne-	1a	-ne-	2.dd\	-ra-	.	.	.	.	.	.	.	.	.	.
.	.	.	.	.	.	2a/	-ne-	.	.	.	.	.	.	.	.
.	.	.	.	4cc\	-sti	.	.	.	.	.	.	.	.	.	.
=8-	=8-	=8-	=8-	=8-	=8-	=8-	=8-	=8-	=8-	=8-	=8-	=8-	=8-	=8-	=8-
2g\	-ra-	1.b-	-ra-	2b-\	cor	1.dd	-ra-	.	.	.	.	.	.	.	.
4f\	-sti	.	.	4a\	.	.	.	.	.	.	.	.	.	.	.
4e-X\	cor	.	.	4g/	.	.	.	.	.	.	.	.	.	.	.
=9-	=9-	=9-	=9-	=9-	=9-	=9-	=9-	=9-	=9-	=9-	=9-	=9-	=9-	=9-	=9-
1d	me-	.	.	1a	me-	.	.	.	.	.	.	.	.	.	.
.	.	4a\	-sti	.	.	4cc\	-sti	.	.	.	.	.	.	.	.
.	.	4g\	cor	.	.	4b-/	cor	.	.	.	.	.	.	.	.
=10-	=10-	=10-	=10-	=10-	=10-	=10-	=10-	=10-	=10-	=10-	=10-	=10-	=10-	=10-	=10-
!	!	!LO:TX:t=P:problem=# below	!	!	!	!	!	!	!	!	!	!	!	!	!
1d	-um	2f#X\	me-	1a	-um	2a/	me-	1r	.	1r	.	1r	.	1r	.
!	!	!LO:TX:t=P:problem=# below	!	!	!	!	!	!	!	!	!	!	!	!	!
.	.	2f#X\	-um	.	.	2a/	-um	.	.	.	.	.	.	.	.
=11-	=11-	=11-	=11-	=11-	=11-	=11-	=11-	=11-	=11-	=11-	=11-	=11-	=11-	=11-	=11-
00r	.	00r	.	00r	.	1r	.	1.B-	So-	1.b-	So-	2.b-\	So-	2.dd\	So-
.	.	.	.	.	.	.	.	.	.	.	.	4cc\	.	4cc\	.
=12-	=12-	=12-	=12-	=12-	=12-	=12-	=12-	=12-	=12-	=12-	=12-	=12-	=12-	=12-	=12-
.	.	.	.	.	.	0r	.	.	.	.	.	2dd\	.	1b-	-ror
.	.	.	.	.	.	.	.	2B-/	-ror	2b-\	-ror	2dd\	-ror	.	.
=13-	=13-	=13-	=13-	=13-	=13-	=13-	=13-	=13-	=13-	=13-	=13-	=13-	=13-	=13-	=13-
.	.	.	.	.	.	.	.	2f\	me-	2a\	me-	2cc\	me-	2a/	me-
.	.	.	.	.	.	.	.	2g\	-a	2g\	-a	2b-\	-a	2b-/	-a
=14-	=14-	=14-	=14-	=14-	=14-	=14-	=14-	=14-	=14-	=14-	=14-	=14-	=14-	=14-	=14-
.	.	.	.	.	.	1r	.	4f\	spon-	1cc	spon-	1a	spon-	1cc	spon-
.	.	.	.	.	.	.	.	4eny\	.	.	.	.	.	.	.
.	.	.	.	.	.	.	.	4d\	.	.	.	.	.	.	.
.	.	.	.	.	.	.	.	4c/	.	.	.	.	.	.	.
=15-	=15-	=15-	=15-	=15-	=15-	=15-	=15-	=15-	=15-	=15-	=15-	=15-	=15-	=15-	=15-
2r	.	2r	.	2r	.	2r	.	2B-/	-sa	2b-\,>	-sa	2b-\	-sa	2dd\	-sa
1B-/	so-	1fny\	so-	1b-\	So-	1dd\	So-	1B-/	So-	1b-\	So-	1dd\	So-	1ff\	So-
=16-	=16-	=16-	=16-	=16-	=16-	=16-	=16-	=16-	=16-	=16-	=16-	=16-	=16-	=16-	=16-
*	*	*	*	*	*	*	*	*	*	*	*	*custos:b-	*	*	*
!	!	!	!	!	!	!	!	!	!	!	!	!LO:PB:g=original	!	!	!
2B-/	-ror	2d/	-ror	2b-\	-ror	2dd\	-ror	2B-/	-ror	2fny\	-ror	2b-\	-ror	2ff\	-ror
=17-	=17-	=17-	=17-	=17-	=17-	=17-	=17-	=17-	=17-	=17-	=17-	=17-	=17-	=17-	=17-
2e-X\	me-	2g\	me-	2g/	me-	2b-/	me-	2E-X/	me-	2g\	me-	2b-\	me-	2ee-X\	me-
2B-/	-a	4d/	-a	2dd\	-a	2b-/	-a	2B-/	-a	2f\	-a	2.b-\	-a	2dd\	-a
.	.	4e/	.	.	.	.	.	.	.	.	.	.	.	.	.
=18-	=18-	=18-	=18-	=18-	=18-	=18-	=18-	=18-	=18-	=18-	=18-	=18-	=18-	=18-	=18-
4f\	spon-	1f	spon-	1a	spon-	1cc	spon-	1F	spon-	1f	spon-	.	.	1cc	spon-
4eny\	.	.	.	.	.	.	.	.	.	.	.	8a\L	spon-	.	.
.	.	.	.	.	.	.	.	.	.	.	.	8g\J	.	.	.
4d\	.	.	.	.	.	.	.	.	.	.	.	2a\	.	.	.
4c/	.	.	.	.	.	.	.	.	.	.	.	.	.	.	.
*	*	*	*	*	*	*	*	*custos:B-	*	*	*	*	*	*	*
!	!	!	!	!	!	!	!	!LO:PB:g=original	!	!	!	!	!	!	!
=19-	=19-	=19-	=19-	=19-	=19-	=19-	=19-	=19-	=19-	=19-	=19-	=19-	=19-	=19-	=19-
2B-/	-sa	2f\	-sa	2dd\	-sa	2b-/	-sa	2B-/	-sa	2f\	-sa	2b-\	-sa	2dd\	-sa
2B-/	in	2b-\	in	2dd\	in	2dd\	in	2r	.	2r	.	2r	.	2r	.
*custos:f	*	*	*	*	*	*	*	*	*	*	*	*	*	*custos:dd	*
!LO:LB:g=original	!	!	!	!	!	!	!	!	!	!	!	!	!	!LO:LB:g=original	!
=20-	=20-	=20-	=20-	=20-	=20-	=20-	=20-	=20-	=20-	=20-	=20-	=20-	=20-	=20-	=20-
4.f\	v-	4.a\	v-	4.cc\	v-	4.ff\	v-	0r	.	0r	.	0r	.	0r	.
8f\	-no	8a\	-no	8cc\	-no	8ff\	-no	.	.	.	.	.	.	.	.
*	*	*	*	*custos:cc	*	*	*	*	*	*	*	*	*	*	*
!	!	!	!	!LO:LB:g=original	!	!	!	!	!	!	!	!	!	!	!
4f\	o-	4a\	o-	4cc\	o-	4ff\	o-	.	.	.	.	.	.	.	.
4f\	-cu-	4a\	-cu-	4cc\	-cu-	4ff\	-cu-	.	.	.	.	.	.	.	.
*	*	*custos:a	*	*	*	*custos:ff	*	*	*	*	*	*	*	*	*
!	!	!LO:LB:g=original	!	!	!	!LO:LB:g=original	!	!	!	!	!	!	!	!	!
=21-	=21-	=21-	=21-	=21-	=21-	=21-	=21-	=21-	=21-	=21-	=21-	=21-	=21-	=21-	=21-
2d\	-lo-	2a\	-lo-	2dd\	-lo-	2ff\	-lo-	.	.	.	.	.	.	.	.
4e-X\	-rum	4g\	-rum	4b-\	-rum	4ee-X\	-rum	.	.	.	.	.	.	.	.
4c/	tu-	2g\	tu-	4cc\	tu-	4ee-\	tu-	.	.	.	.	.	.	.	.
*	*	*	*	*	*	*	*	*	*	*custos:f	*	*	*	*	*
!	!	!	!	!	!	!	!	!	!	!LO:PB:g=original	!	!	!	!	!
=22-	=22-	=22-	=22-	=22-	=22-	=22-	=22-	=22-	=22-	=22-	=22-	=22-	=22-	=22-	=22-
1d	-o-	.	.	1a	-o-	1dd	-o-	2r	.	2r	.	2r	.	2r	.
!	!	!LO:TX:t=P:problem=# below	!	!	!	!	!	!	!	!	!	!	!	!	!
.	.	4f#X\	-o-	.	.	.	.	.	.	.	.	.	.	.	.
!	!	!LO:TX:t=P:problem=niewyraźne źródło	!	!	!	!	!	!	!	!	!	!	!	!	!
.	.	2g\	-rum	.	.	.	.	2d\	in	2f\	in	2a\	in	2dd\	in
=23-	=23-	=23-	=23-	=23-	=23-	=23-	=23-	=23-	=23-	=23-	=23-	=23-	=23-	=23-	=23-
!	!	!	!	!LO:N:acc=#	!	!	!	!	!	!	!	!	!	!	!
!	!	!LO:TX:t=P:problem=pauza niewidoczna	!	!LO:TX:t=P:problem=# below	!	!	!	!	!	!	!	!LO:SIC:v:s:t=4.bn	!	!	!
1G	-rum	1ryy	.	1bn	-rum	1dd	-rum	4.g\	v-	4.g\	V-	4.b-\	v-	4.dd\	v-
!	!	!	!	!	!	!	!	!	!	!	!	!LO:SIC:v:s:t=8bn	!	!	!
.	.	.	.	.	.	.	.	8g\	-no	8g\	-no	8b-\	-no	8dd\	-no
!	!	!	!	!	!	!	!	!	!	!	!	!LO:SIC:v:s:t=4bn	!	!	!
.	.	.	.	.	.	.	.	4g\	o-	4g\	o-	4b-\	o-	4dd\	o-
!	!	!	!	!	!	!	!	!	!	!	!	!LO:SIC:v:s:t=4bn	!	!	!
.	.	.	.	.	.	.	.	4g\	-cu-	4g\	-cu-	4b-\	-cu-	4dd\	-cu-
=24-	=24-	=24-	=24-	=24-	=24-	=24-	=24-	=24-	=24-	=24-	=24-	=24-	=24-	=24-	=24-
0r	.	0r	.	0r	.	0r	.	2f\	-lo-	2a\	-lo-	2cc\	-lo-	2ff\	-lo-
.	.	.	.	.	.	.	.	4c/	-rum	4g\	-rum	4cc\	-rum	4ee-X\	-rum
.	.	.	.	.	.	.	.	4c/	tu-	4g\	tu-	4cc\	tu-	4ee-\	tu-
=25-	=25-	=25-	=25-	=25-	=25-	=25-	=25-	=25-	=25-	=25-	=25-	=25-	=25-	=25-	=25-
!	!	!	!	!	!	!	!	!	!	!LO:TX:t=P:problem=# below	!	!	!	!	!
.	.	.	.	.	.	.	.	1d	-o-	1f#X	-o-	1a	-o-	1dd	-o-
=26-	=26-	=26-	=26-	=26-	=26-	=26-	=26-	=26-	=26-	=26-	=26-	=26-	=26-	=26-	=26-
4.g\	et	4.b-\	et	4.b-y\	et	4.dd\	et	2G/	-rum	2g\	-rum	2b-\	-rum	2dd\	-rum
8g\	in	8b-\	in	8b-\	in	8dd\	in	.	.	.	.	.	.	.	.
4g\	V-	4g\	v-	4b-\	v-	4dd\	v-	2r	.	2r	.	2r	.	2r	.
4f\	-no	4a\	-no	4cc\	-no	4ff\	-no	.	.	.	.	.	.	.	.
=27-	=27-	=27-	=27-	=27-	=27-	=27-	=27-	=27-	=27-	=27-	=27-	=27-	=27-	=27-	=27-
2.B-/	cri-	2.b-\	cri-	2.dd\	cri-	2.ff\	cri-	4.B-/	et	4.dd\	et	4.b-\	et	4.dd\	et
.	.	.	.	.	.	.	.	8B-/	in	8dd\	in	8b-\	in	8dd\	in
.	.	.	.	.	.	.	.	4B-/	v-	4dd\	v-	4b-\	v-	4dd\	V-
4F/	-ne	4a\	-ne	4cc\	-ne	4ff\	-ne	4f\	-no	4cc\	-no	4cc\	-no	4ff\	-no
=28-	=28-	=28-	=28-	=28-	=28-	=28-	=28-	=28-	=28-	=28-	=28-	=28-	=28-	=28-	=28-
4.B-/	et	4.b-\	et	4.b-\	et	4.dd\	et	2.B-/	cri-	2.b-\	cri-	2.dd\	cri-	2.ff\	cri-
8B-/	in	8b-\	in	8b-\	in	8dd\	in	.	.	.	.	.	.	.	.
4B-/	v-	4g\	v-	4b-\	v-	4dd\	v-	.	.	.	.	.	.	.	.
4f\	-no	4a\	-no	4cc\	-no	4ff\	-no	4F/,>	-ne	4a\,>	-ne	4cc\	-ne	4ff\	-ne
*	*	*	*	*	*	*	*	*	*	*	*	*custos:b-	*	*	*
!	!	!	!	!	!	!	!	!	!	!	!	!LO:LB:g=original	!	!	!
=29-	=29-	=29-	=29-	=29-	=29-	=29-	=29-	=29-	=29-	=29-	=29-	=29-	=29-	=29-	=29-
2.B-/	cri-	2b-\	cri-	2.dd\	cri-	2.ff\	cri-	4.B-/	et	4.b-\	et	4.b-\	et	4.dd\	et
.	.	.	.	.	.	.	.	8B-/	in	8b-\	in	8b-\	in	8dd\	in
.	.	2fny\	-ne	.	.	.	.	4B-/	v-	4b-\	V-	4b-\	v-	4dd\	V-
4F/	-ne	.	.	4cc\	-ne	4ff\	-ne	4f\	-no	4a\	-no	4cc\	-no	4ff\	-no
*custos:g	*	*	*	*	*	*	*	*	*	*	*	*	*	*	*
!LO:LB:g=original	!	!	!	!	!	!	!	!	!	!	!	!	!	!	!
=30-	=30-	=30-	=30-	=30-	=30-	=30-	=30-	=30-	=30-	=30-	=30-	=30-	=30-	=30-	=30-
0r	.	0r	.	0r	.	0r	.	2.B-/	cri-	2.b-\	cri-	2.dd\	cri-	2.ff\	cri-
.	.	.	.	.	.	.	.	4f\	-ne	4a\	-ne	4cc\	-ne	4ff\	-ne
*	*	*	*	*	*	*	*	*custos:g	*	*	*	*	*	*	*
!	!	!	!	!	!	!	!	!LO:LB:g=original	!	!	!	!	!	!	!
=31-	=31-	=31-	=31-	=31-	=31-	=31-	=31-	=31-	=31-	=31-	=31-	=31-	=31-	=31-	=31-
.	.	.	.	.	.	.	.	4g\	co-	4g\	co-	4b-\	co-	4dd\	co-
.	.	.	.	.	.	.	.	4g\	-li	4g\	-li	4b-\	-li	8dd\L	-li
.	.	.	.	.	.	.	.	.	.	.	.	.	.	8eeny\J	.
*	*	*	*	*	*	*	*	*	*	*	*	*	*	*custos:ff	*
!	!	!	!	!	!	!	!	!	!	!	!	!	!	!LO:LB:g=original	!
.	.	.	.	.	.	.	.	2f\	tu-	2a\	tu-	2cc\	tu-	2ff\	tu-
=32-	=32-	=32-	=32-	=32-	=32-	=32-	=32-	=32-	=32-	=32-	=32-	=32-	=32-	=32-	=32-
1r	.	1ryy	.	1r	.	1r	.	1B-	-i	1b-	-i	1dd	-i	1ff	-i
=33-	=33-	=33-	=33-	=33-	=33-	=33-	=33-	=33-	=33-	=33-	=33-	=33-	=33-	=33-	=33-
4.g\	et	4.g\	et	4.b-\	et	4.dd\	et	4.G/	et	4.b-\	et	4.dd\	et	4.gg\	et
8g\	in	8g\	in	8b-\	in	8dd\	in	8G/	in	8b-\	in	8dd\	in	8gg\	in
*	*	*	*	*	*	*	*	*	*	*custos:g	*	*	*	*	*
!	!	!	!	!	!	!	!	!	!	!LO:LB:g=original	!	!	!	!	!
4g\	v-	4g\	v-	4dd\	v-	4dd\	v-	4G/	v-	4g\	V-	4b-\	v-	4gg\	V-
4g\	-no	4g\	-no	4dd\	-no	4dd\	-no	4G/	-no	4g\	-no	4b-\	-no	4gg\	-no
*	*	*	*	*custos:cc	*	*	*	*	*	*	*	*	*	*	*
!	!	!	!	!LO:LB:g=original	!	!	!	!	!	!	!	!	!	!	!
=34-	=34-	=34-	=34-	=34-	=34-	=34-	=34-	=34-	=34-	=34-	=34-	=34-	=34-	=34-	=34-
2.c/	cri-	2g\	cri-	2.cc\	cri-	2.ee-X\	cri-	2.c/	cri-	2.g\	cri-	2.cc\	cri-	2.gg\	cri-
.	.	2c/	-ne	.	.	.	.	.	.	.	.	.	.	.	.
4f\	-ne	.	.	4a\	-ne	4cc\	-ne	4F/	-ne	4a\	-ne	4cc\	-ne	4ff\	-ne
*	*	*custos:g	*	*	*	*	*	*	*	*	*	*	*	*	*
*	*	*	*	*	*	*custos:ee-	*	*	*	*	*	*	*	*	*
!	!	!LO:LB:g=original	!	!	!	!LO:PB:g=original	!	!	!	!	!	!	!	!	!
=35-	=35-	=35-	=35-	=35-	=35-	=35-	=35-	=35-	=35-	=35-	=35-	=35-	=35-	=35-	=35-
4c/	co-	4g\	co-	4cc\	co-	4ee-X\	co-	4c/	co-	4g\	co-	4cc\	co-	4gg\	co-
4g\	-li	4d/	-li	4b-\	-li	4dd\	-li	4G/	-li	4g\	-li	4dd\	-li	2gg\	-li
2d\	tu-	2d/	tu-	2a\	tu-	2dd\	tu-	2d\	tu-	2a\	tu-	2dd\	tu-	.	.
!	!	!	!	!	!	!	!	!	!	!	!	!	!	!LO:TX:t=P:problem=# below	!
.	.	.	.	.	.	.	.	.	.	.	.	.	.	4ff#X\	tu-
=36-	=36-	=36-	=36-	=36-	=36-	=36-	=36-	=36-	=36-	=36-	=36-	=36-	=36-	=36-	=36-
2g\	-i	2d/	-i	2b-\	-i	2dd\	-i	2G/	-i	2g\	-i	2dd\	-i	2gg\	-i
2r	.	2r	.	2r	.	2r	.	4.d\	et	4.f#\	et	4.a\	et	4.dd\	et
!	!	!	!	!	!	!	!	!	!	!LO:TX:t=P:problem=# above	!	!	!	!	!
.	.	.	.	.	.	.	.	8d\	in	8f#X\	in	8a\	in	8dd\	in
=37-	=37-	=37-	=37-	=37-	=37-	=37-	=37-	=37-	=37-	=37-	=37-	=37-	=37-	=37-	=37-
!	!	!	!	!	!	!	!	!	!	!LO:TX:t=P:problem=# above	!	!	!	!	!
00r	.	00r	.	00r	.	00r	.	4d\	v-	4f#X\	V-	4a\	v-	4dd\	v-
.	.	.	.	.	.	.	.	4d\	-no	4f#\	-no	4a\	-no	4dd\	-no
.	.	.	.	.	.	.	.	2g\	cri-	2g\	cri-	4.b-\	cri-	4.dd\	cri-
.	.	.	.	.	.	.	.	.	.	.	.	8cc\	.	8ee\	-ne
*	*	*	*	*	*	*	*	*	*	*	*	*custos:dd	*	*	*
!	!	!	!	!	!	!	!	!	!	!	!	!LO:LB:g=original	!	!	!
=38-	=38-	=38-	=38-	=38-	=38-	=38-	=38-	=38-	=38-	=38-	=38-	=38-	=38-	=38-	=38-
.	.	.	.	.	.	.	.	2d\	-ne	2a\	-ne	2dd\	-ne	2ffny\	co-
.	.	.	.	.	.	.	.	1B-/	co-	1b-\	co-	1dd\	co-	1ff\	-li-
=39-	=39-	=39-	=39-	=39-	=39-	=39-	=39-	=39-	=39-	=39-	=39-	=39-	=39-	=39-	=39-
.	.	.	.	.	.	.	.	2c/	-li	4a\	-li	4cc\	.	2ee-X\	-tu-
.	.	.	.	.	.	.	.	.	.	4g\	.	4b-\	.	.	.
=40-	=40-	=40-	=40-	=40-	=40-	=40-	=40-	=40-	=40-	=40-	=40-	=40-	=40-	=40-	=40-
!	!	!	!	!	!	!	!	!	!	!LO:TX:t=P:problem=# below	!	!	!	!	!
.	.	.	.	.	.	.	.	0d	tu-	2f#X\	.	2a\	.	0dd	.
.	.	.	.	.	.	.	.	.	.	1g\	.	2b-\	-li	.	.
=41-	=41-	=41-	=41-	=41-	=41-	=41-	=41-	=41-	=41-	=41-	=41-	=41-	=41-	=41-	=41-
0r	.	0r	.	0r	.	0r	.	.	.	.	.	1a	tu-	.	.
!	!	!	!	!	!	!	!	!	!	!LO:TX:t=P:problem=# below	!	!	!	!	!
.	.	.	.	.	.	.	.	.	.	2f#X\	tu-	.	.	.	.
=42-	=42-	=42-	=42-	=42-	=42-	=42-	=42-	=42-	=42-	=42-	=42-	=42-	=42-	=42-	=42-
!	!	!	!	!	!	!	!	!	!	!	!	!LO:TX:t=P:problem=# below	!	!	!
!	!	!	!	!	!	!	!	!	!	!	!	!LO:N:acc=#	!	!	!
.	.	.	.	.	.	.	.	1G,>	-i	1g	-i	1bn	-i	1dd	-i
*	*	*	*	*	*	*	*	*	*	*	*	*	*	*custos:ff#	*
!	!	!	!	!	!	!	!	!	!	!	!	!	!	!LO:LB:g=original	!
=43-	=43-	=43-	=43-	=43-	=43-	=43-	=43-	=43-	=43-	=43-	=43-	=43-	=43-	=43-	=43-
*	*	*	*	*	*	*	*	*custos:d	*	*	*	*	*	*	*
!	!	!	!	!	!	!	!	!LO:LB:g=original	!	!	!	!	!	!	!
!	!	!LO:TX:t=P:problem=# below	!	!	!	!	!	!	!	!	!	!	!	!	!
2d\	quam	2f#X\	quam	2a\	quam	2dd\	quam	1r	.	1r	.	1r	.	1r	.
!	!	!LO:TX:t=P:problem=# below	!	!	!	!	!	!	!	!	!	!	!	!	!
4d\	pul-	4f#X\	pul-	4b-\	pul-	4b-/	pul-	.	.	.	.	.	.	.	.
4e-X\	-chrae	4g\	-chrae	4g/	-chrae	4cc\	-chrae	.	.	.	.	.	.	.	.
=44-	=44-	=44-	=44-	=44-	=44-	=44-	=44-	=44-	=44-	=44-	=44-	=44-	=44-	=44-	=44-
!	!	!LO:TX:t=P:problem=# below	!	!	!	!	!	!	!	!	!	!	!	!	!
2d\	ſunt	2f#X\	ſunt	2a\	ſunt	2dd\	ſunt	4r	.	4r	.	4r	.	4r	.
!	!	!	!	!	!	!	!	!	!	!	!	!	!	!LO:TX:t=P:problem=# below	!
.	.	.	.	.	.	.	.	4d\	quam	4a\	quam	4dd\	quam	4ff#X\	quam
2r	.	2r	.	2r	.	2r	.	4d\	pul-	4b-\	pul-	4b-\	pul-	4ff#\	pul-
.	.	.	.	.	.	.	.	4e-X\	-chrae	4g\	-chrae	4cc\	-chrae	4gg\	-chrae
=45-	=45-	=45-	=45-	=45-	=45-	=45-	=45-	=45-	=45-	=45-	=45-	=45-	=45-	=45-	=45-
!	!	!	!	!	!	!	!	!	!	!	!	!	!	!LO:TX:t=P:problem=# below	!
4r	.	4r	.	4r	.	4r	.	2d\	ſunt	2a\	ſunt	2dd\	ſunt	2ff#X\	ſunt
!	!	!LO:TX:t=P:problem=# below	!	!	!	!	!	!	!	!	!	!	!	!	!
4d\	quam	4f#X\	quam	4a\	quam	4dd\	quam	.	.	.	.	.	.	.	.
*	*	*	*	*	*	*	*	*	*	*custos:a	*	*	*	*	*
!	!	!	!	!	!	!	!	!	!	!LO:LB:g=original	!	!	!	!	!
4d\	pul-	4f#\	pul-	4b-\	pul-	4b-/	pul-	2r	.	2r	.	2r	.	2r	.
4e-X\	-chrae	4g\	-chrae	4g/	-chrae	4cc\	-chrae	.	.	.	.	.	.	.	.
=46-	=46-	=46-	=46-	=46-	=46-	=46-	=46-	=46-	=46-	=46-	=46-	=46-	=46-	=46-	=46-
!	!	!LO:TX:t=P:problem=# below	!	!	!	!	!	!	!	!	!	!	!	!	!
2d\	ſunt	2f#X\	ſunt	2a\	ſunt	2dd\	ſunt	4r	.	4r	.	4r	.	4r	.
.	.	.	.	.	.	.	.	4d\	quam	4a\	quam	4dd\	quam	4ff#\	quam
2r	.	2r	.	2r	.	2r	.	4d\	pul-	4a\	pul-	4dd\	pul-	4ff#\	pul-
.	.	.	.	.	.	.	.	4g\	-chrae	4b-\	-chrae	4b-\	-chrae	4gg\	-chrae
=47-	=47-	=47-	=47-	=47-	=47-	=47-	=47-	=47-	=47-	=47-	=47-	=47-	=47-	=47-	=47-
*custos:B-	*	*	*	*	*	*	*	*	*	*	*	*	*	*	*
!LO:LB:g=original	!	!	!	!	!	!	!	!	!	!	!	!	!	!	!
!	!	!	!	!	!	!	!	!	!	!	!	!	!	!LO:TX:t=P:problem=# below	!
0r	.	0r	.	0r	.	0r	.	2d\	ſunt	2a\	ſunt	2dd\	ſunt	2ff#X\	ſunt
.	.	.	.	.	.	.	.	4d\	mam-	4a\	mam-	4dd\	mam-	4ff#\	mam-
.	.	.	.	.	.	.	.	4g\	-mae	4b-\	-mae	4b-\	-mae	8dd\L	-mae
.	.	.	.	.	.	.	.	.	.	.	.	.	.	8eeny\J	.
=48-	=48-	=48-	=48-	=48-	=48-	=48-	=48-	=48-	=48-	=48-	=48-	=48-	=48-	=48-	=48-
.	.	.	.	.	.	.	.	2f\	tu-	2a\	tu-	2cc\	tu-	2ffny\	tu-
.	.	.	.	.	.	.	.	2f\	-ae	2a\	-ae	2cc\	-ae	2ff\	-ae
=49-	=49-	=49-	=49-	=49-	=49-	=49-	=49-	=49-	=49-	=49-	=49-	=49-	=49-	=49-	=49-
2.B-/	So-	2.b-\	So-	2.dd\	So-	2.ff\	So-	0r	.	0r	.	0r	.	0r	.
4c/	-ror	8a\L	-ror	8cc\L	-ror	4ee-X\	-ror	.	.	.	.	.	.	.	.
.	.	8g\J	.	8b-\J	.	.	.	.	.	.	.	.	.	.	.
=50-	=50-	=50-	=50-	=50-	=50-	=50-	=50-	=50-	=50-	=50-	=50-	=50-	=50-	=50-	=50-
4d\	me-	4fny\	me-	4a\	me-	4dd\	me-	.	.	.	.	.	.	.	.
4B-/	-a	2b-\	-a	4b-\	-a	4dd\	-a	.	.	.	.	.	.	.	.
2f\	spon-	.	.	2cc\	spon-	2cc\	spon-	.	.	.	.	.	.	.	.
.	.	4a\	spon-	.	.	.	.	.	.	.	.	.	.	.	.
=51-	=51-	=51-	=51-	=51-	=51-	=51-	=51-	=51-	=51-	=51-	=51-	=51-	=51-	=51-	=51-
2B-/	-sa	2b-\	-sa	2b-\	-sa	2dd\	-sa	2r	.	2r	.	2r	.	1r	.
2r	.	2r	.	2r	.	2r	.	4.f\	So-	4.a\	So-	4.cc\	So-	.	.
.	.	.	.	.	.	.	.	8eny\	-ror	8g\	-ror	8cc\	-ror	.	.
*	*	*custos:b-	*	*custos:dd	*	*	*	*	*	*	*	*	*	*	*
*	*	*	*	*	*	*	*	*	*	*	*	*custos:b-	*	*	*
!	!	!LO:PB:g=original	!	!	!LO:PB:g=original	!	!	!	!	!	!	!LO:LB:g=original	!	!	!
=52-	=52-	=52-	=52-	=52-	=52-	=52-	=52-	=52-	=52-	=52-	=52-	=52-	=52-	=52-	=52-
0r	.	0r	.	0r	.	0r	.	4.d\	.	4.fny\	.	4.b-\	.	4.ff\	So-
.	.	.	.	.	.	.	.	8c/	me-	8g\	me-	8cc\	me-	8ee\	.
.	.	.	.	.	.	.	.	2B-/	-a	2d/	-a	2dd\	-a	2dd\	-ror
=53-	=53-	=53-	=53-	=53-	=53-	=53-	=53-	=53-	=53-	=53-	=53-	=53-	=53-	=53-	=53-
!	!	!	!	!	!	!	!	!	!	!	!	!LO:TX:t=P:problem=# below	!	!	!
.	.	.	.	.	.	.	.	1A	spon-	1a	spon-	4cc#X\	spon-	4ee\	me-
.	.	.	.	.	.	.	.	.	.	.	.	2dd\	.	4ff\	-a
.	.	.	.	.	.	.	.	.	.	.	.	.	.	2ee\	spon-
*	*	*	*	*	*	*	*	*	*	*	*	*	*	*custos:dd	*
!	!	!	!	!	!	!	!	!	!	!	!	!	!	!LO:LB:g=original	!
!	!	!	!	!	!	!	!	!	!	!	!	!LO:TX:t=P:problem=# below	!	!	!
.	.	.	.	.	.	.	.	.	.	.	.	4cc#X\	.	.	.
=54-	=54-	=54-	=54-	=54-	=54-	=54-	=54-	=54-	=54-	=54-	=54-	=54-	=54-	=54-	=54-
2r	.	2r	.	2r	.	2r	.	2d\	-sa	2a\	-sa	2dd\	-sa	2dd\	-sa
4.g\	pul-	4.b-\	pul-	4.dd\	pul-	4.dd\	pul-	2r	.	2r	.	2r	.	2r	.
8g\	-chri-	8b-\	-chri-	8dd\	-chri-	8dd\	-chri-	.	.	.	.	.	.	.	.
*	*	*	*	*	*	*custos:dd	*	*	*	*	*	*	*	*	*
!	!	!	!	!	!	!LO:LB:g=original	!	!	!	!	!	!`	!	!	!
=55-	=55-	=55-	=55-	=55-	=55-	=55-	=55-	=55-	=55-	=55-	=55-	=55-	=55-	=55-	=55-
4g\	-o-	4g\	-o-	4b-\	-o-	4dd\	-o-	2r	.	2r	.	2r	.	2r	.
4c/	-ra	8g\L	-ra	4cc\	-ra	4ee-X\	-ra	.	.	.	.	.	.	.	.
.	.	8a\J	.	.	.	.	.	.	.	.	.	.	.	.	.
2g\	ſunt	2b-\	sunt	2dd\	ſunt	2dd\	ſunt	4.g\	pul-	4.b-\	pul-	4.dd\	pul-	4.dd\	pul-
.	.	.	.	.	.	.	.	8g\	-chri-	8b-\	-chri-	8dd\	-chri-	8dd\	-chri-
*	*	*	*	*	*	*	*	*custos:g	*	*	*	*	*	*	*
!	!	!	!	!	!	!	!	!LO:LB:g=original	!	!	!	!	!	!	!
=56-	=56-	=56-	=56-	=56-	=56-	=56-	=56-	=56-	=56-	=56-	=56-	=56-	=56-	=56-	=56-
2r	.	2r	.	2r	.	2r	.	4g\	-o-	4b-\	-o-	4dd\	-o-	4dd\	-o-
.	.	.	.	.	.	.	.	4c/	-ra	8g\L	-ra	4ccny\	-ra	4ee-X\	-ra
.	.	.	.	.	.	.	.	.	.	8a\J	.	.	.	.	.
4.g\	pul-	4.b-\	pul-	4.b-\	pul-	4.dd\	pul-	2g\	ſunt	2b-\	ſunt.	2dd\	ſunt	2dd\	ſunt
8g\	-chri-	8b-\	-chri-	8b-\	-chri-	8dd\	-chri-	.	.	.	.	.	.	.	.
=57-	=57-	=57-	=57-	=57-	=57-	=57-	=57-	=57-	=57-	=57-	=57-	=57-	=57-	=57-	=57-
4g\	-o-	4g\	-o-	4b-\	-o-	4dd\	-o-	2r	.	2r	.	2r	.	2r	.
4c\	-ra	8g\L	-ra	4cc\	-ra	4ee-X\	-ra	.	.	.	.	.	.	.	.
.	.	8a\J	.	.	.	.	.	.	.	.	.	.	.	.	.
*	*	*	*	*	*	*	*	*	*	*custos:b-	*	*	*	*	*
!	!	!	!	!	!	!	!	!	!	!LO:LB:g=original	!	!	!	!	!
2g\	sunt	2b-\	ſunt	2dd\	ſunt	2dd\	ſunt	4.g\	pul-	4.b-\	pul-	4.b-\	pul-	4.dd\	pul-
.	.	.	.	.	.	.	.	8g\	-chri-	8b-\	-chri-	8b-\	-chri-	8dd\	-chri-
=58-	=58-	=58-	=58-	=58-	=58-	=58-	=58-	=58-	=58-	=58-	=58-	=58-	=58-	=58-	=58-
1r	.	1r	.	1r	.	1r	.	4g\	-o-	4g\	-o-	4b-\	-o-	4dd\	-o-
.	.	.	.	.	.	.	.	4c/	-ra	8g\L	-ra	4cc\	-ra	4ee-X\	-ra
.	.	.	.	.	.	.	.	.	.	8a\J	.	.	.	.	.
.	.	.	.	.	.	.	.	2g\	ſunt	2b-\	ſunt	2dd\	ſunt	2dd\	ſunt
=59-	=59-	=59-	=59-	=59-	=59-	=59-	=59-	=59-	=59-	=59-	=59-	=59-	=59-	=59-	=59-
4B-/	V-	4f\	v-	4b-\	v-	4dd\	V-	0r	.	0r	.	0r	.	0r	.
8B-/L	-be-	8f\L	-be-	8b-\L	-be-	8dd\L	-be-	.	.	.	.	.	.	.	.
8B-/J	-ra	8f\J	-ra	8b-\J	-ra	8dd\J	-ra	.	.	.	.	.	.	.	.
4f\	tu-	4a\	tu-	4a\	tu-	4cc\	tu-	.	.	.	.	.	.	.	.
!	!LO:SIC:v:l:s:t=-a	!	!	!	!	!	!	!	!	!	!	!	!	!	!
4g\	-o	4g\	-a	2b-\	-a	4b-/	-a	.	.	.	.	.	.	.	.
*custos:f	*	*	*	*	*	*	*	*	*	*	*	*	*	*	*
!LO:PB:g=original	!	!	!	!	!	!	!	!	!	!	!	!	!	!	!
=60-	=60-	=60-	=60-	=60-	=60-	=60-	=60-	=60-	=60-	=60-	=60-	=60-	=60-	=60-	=60-
2f\	vi-	2a\	vi-	.	.	2cc\	vi-	.	.	.	.	.	.	.	.
.	.	.	.	4a\	vi-	.	.	.	.	.	.	.	.	.	.
2B-/	-no	2f\	-no	2b-\	-no	2dd\	-no	.	.	.	.	.	.	.	.
=61-	=61-	=61-	=61-	=61-	=61-	=61-	=61-	=61-	=61-	=61-	=61-	=61-	=61-	=61-	=61-
00r	.	00r	.	00r	.	00r	.	2.f\	v-	2.a\	v-	2.cc\	v-	1r	.
.	.	.	.	.	.	.	.	8e\L	-be-	8g\L	-be-	8cc\L	-be-	.	.
.	.	.	.	.	.	.	.	8d\J	-ra	8f\J	-ra	8b-\J	.	.	.
=62-	=62-	=62-	=62-	=62-	=62-	=62-	=62-	=62-	=62-	=62-	=62-	=62-	=62-	=62-	=62-
.	.	.	.	.	.	.	.	2.d\	tu-	2.f\	tu-	2.a\	-ra	2.ff\	V-
.	.	.	.	.	.	.	.	8c/L	-a	4g\	-a	4b-\	tu-	8eeny\L	-be-
.	.	.	.	.	.	.	.	8B-/J	.	.	.	.	.	8dd\J	.
=63-	=63-	=63-	=63-	=63-	=63-	=63-	=63-	=63-	=63-	=63-	=63-	=63-	=63-	=63-	=63-
.	.	.	.	.	.	.	.	0A	vi-	0a	vi-	4a\	.	4cc\	-ra
.	.	.	.	.	.	.	.	.	.	.	.	4b-\	.	4dd\	tu-
.	.	.	.	.	.	.	.	.	.	.	.	4cc\	.	4ee\	.
.	.	.	.	.	.	.	.	.	.	.	.	4dd\	.	4ff\	.
*	*	*	*	*	*	*	*	*	*	*	*	*custos:cc#	*	*	*
!	!	!	!	!	!	!	!	!	!	!	!	!LO:LB:g=original	!	!	!
=64-	=64-	=64-	=64-	=64-	=64-	=64-	=64-	=64-	=64-	=64-	=64-	=64-	=64-	=64-	=64-
!	!	!	!	!	!	!	!	!	!	!	!	!LO:TX:t=P:problem=# below	!	!	!
.	.	.	.	.	.	.	.	.	.	.	.	4cc#X\	.	4ee\	.
.	.	.	.	.	.	.	.	.	.	.	.	2dd\	-a	4dd\	-a
.	.	.	.	.	.	.	.	.	.	.	.	.	.	2ee\	Vi-
!	!	!	!	!	!	!	!	!	!	!	!	!LO:TX:t=P:problem=# below	!	!	!
.	.	.	.	.	.	.	.	.	.	.	.	4cc#X\	vi-	.	.
=65-	=65-	=65-	=65-	=65-	=65-	=65-	=65-	=65-	=65-	=65-	=65-	=65-	=65-	=65-	=65-
1r	.	1r	.	1r	.	1r	.	1d	-no	1a	-no	1dd	-no	1dd	-no
*	*	*	*	*	*	*	*	*	*	*	*	*	*	*custos:dd	*
!	!	!	!	!	!	!	!	!	!	!	!	!	!	!LO:LB:g=original	!
=66-	=66-	=66-	=66-	=66-	=66-	=66-	=66-	=66-	=66-	=66-	=66-	=66-	=66-	=66-	=66-
4g\	et	1.g	et	2.b-\	et	1dd	et	1G	et	1g	et	1b-	et	1dd	et
4f\	.	.	.	.	.	.	.	.	.	.	.	.	.	.	.
4eny\	o-	.	.	.	.	.	.	.	.	.	.	.	.	.	.
4d\	.	.	.	4a\	.	.	.	.	.	.	.	.	.	.	.
=67-	=67-	=67-	=67-	=67-	=67-	=67-	=67-	=67-	=67-	=67-	=67-	=67-	=67-	=67-	=67-
1c	.	.	.	1g	o-	1cc	o-	1c	o-	1g	o-	1ccny	o-	1ee	o-
.	.	2c/	o-	.	.	.	.	.	.	.	.	.	.	.	.
=68-	=68-	=68-	=68-	=68-	=68-	=68-	=68-	=68-	=68-	=68-	=68-	=68-	=68-	=68-	=68-
1f	-dor	1c	-dor.	1a	-dor	1cc	-dor	1F	-dor	1a	-dor	2cc\	-dor	2ff\	-dor
.	.	.	.	.	.	.	.	.	.	.	.	4cc\	Vn-	4ff\	Vn-
.	.	.	.	.	.	.	.	.	.	.	.	4cc\	-gu-	4ff\	-gu-
*	*	*custos:f	*	*	*	*	*	*	*	*	*	*	*	*	*
!	!	!LO:LB:g=original	!	!	!	!	!	!	!	!	!	!	!	!	!
=69-	=69-	=69-	=69-	=69-	=69-	=69-	=69-	=69-	=69-	=69-	=69-	=69-	=69-	=69-	=69-
0r	.	0r	.	0r	.	0r	.	2B-/	Vn-	4f\	vn-	8b-\L	-en-	8dd\L	-en-
.	.	.	.	.	.	.	.	.	.	.	.	8a\	.	8cc\	.
.	.	.	.	.	.	.	.	.	.	4f\	-gu-	8b-\	.	8dd\	.
.	.	.	.	.	.	.	.	.	.	.	.	8cc\J	.	8ee\J	.
.	.	.	.	.	.	.	.	2B-/	-guen-	8d/L	-en-	1dd\	-to-	2ff\	-to-
.	.	.	.	.	.	.	.	.	.	8c/	.	.	.	.	.
.	.	.	.	.	.	.	.	.	.	8d/	.	.	.	.	.
.	.	.	.	.	.	.	.	.	.	8e/J	.	.	.	.	.
=70-	=70-	=70-	=70-	=70-	=70-	=70-	=70-	=70-	=70-	=70-	=70-	=70-	=70-	=70-	=70-
.	.	.	.	.	.	.	.	2B-/	-to-	2f\	-to-	.	.	1dd	-rum
.	.	.	.	.	.	.	.	2B-/	-rum	2f\	-rum	2b-\	-rum	.	.
*	*	*	*	*custos:dd	*	*	*	*	*	*	*	*	*	*	*
*	*	*	*	*	*	*	*	*	*	*custos:g	*	*	*	*	*
!	!	!	!	!LO:LB:g=original	!	!	!	!	!	!LO:LB:g=original	!	!	!	!	!
=71-	=71-	=71-	=71-	=71-	=71-	=71-	=71-	=71-	=71-	=71-	=71-	=71-	=71-	=71-	=71-
2B-/	Vn-	4.f\	Vn-	4dd\	Vn-	4ff\	Vn-	0r	.	0r	.	0r	.	0r	.
.	.	.	.	4dd\	-guen-	4ff\	-guen-	.	.	.	.	.	.	.	.
.	.	8e/	-gu-	.	.	.	.	.	.	.	.	.	.	.	.
2B-/	-guen-	2d/	-en-	8b-\L	-to-	8dd\L	-to-	.	.	.	.	.	.	.	.
.	.	.	.	8a\	.	8cc\	.	.	.	.	.	.	.	.	.
.	.	.	.	8b-\	.	8dd\	.	.	.	.	.	.	.	.	.
.	.	.	.	8cc\J	.	8eeny\J	.	.	.	.	.	.	.	.	.
*	*	*	*	*	*	*custos:ff	*	*	*	*	*	*	*	*	*
!	!	!	!	!	!	!LO:LB:g=original	!	!	!	!	!	!	!	!	!
=72-	=72-	=72-	=72-	=72-	=72-	=72-	=72-	=72-	=72-	=72-	=72-	=72-	=72-	=72-	=72-
2B-/	-to-	2f\	-to-	2dd\	-rum	2ff\	-rum	.	.	.	.	.	.	.	.
2B-/	-rum	2f\	-rum	2b-\,>	.	2dd\	.	.	.	.	.	.	.	.	.
*	*	*	*	*	*	*	*	*custos:c	*	*	*	*	*	*	*
!	!	!	!	!	!	!	!	!LO:LB:g=original	!	!	!	!	!	!	!
=73-	=73-	=73-	=73-	=73-	=73-	=73-	=73-	=73-	=73-	=73-	=73-	=73-	=73-	=73-	=73-
4c/	tu-	1.g	tu-	2cc\	tu-	1cc	tu-	2.c/	tu-	0g	tu-	1cc	tu-	1.gg	tu-
4d\	.	.	.	.	.	.	.	.	.	.	.	.	.	.	.
4e\	.	.	.	2g/	-o-	.	.	.	.	.	.	.	.	.	.
4f\	.	.	.	.	.	.	.	8B-/L	-o-	.	.	.	.	.	.
.	.	.	.	.	.	.	.	8A/J	.	.	.	.	.	.	.
=74-	=74-	=74-	=74-	=74-	=74-	=74-	=74-	=74-	=74-	=74-	=74-	=74-	=74-	=74-	=74-
2.g\	-o-	.	.	2.dd\	.	0cc	-o-	4G/	.	.	.	4b-\	.	.	.
.	.	.	.	.	.	.	.	4A/	.	.	.	4cc\	.	.	.
.	.	2d/	-o-	.	.	.	.	4B-/	.	.	.	2.dd\	.	4dd\	.
8f\L	.	.	.	8cc\L	.	.	.	4c/	.	.	.	.	.	2gg\	.
8e\J	.	.	.	8b-\J	.	.	.	.	.	.	.	.	.	.	.
=75-	=75-	=75-	=75-	=75-	=75-	=75-	=75-	=75-	=75-	=75-	=75-	=75-	=75-	=75-	=75-
1d	.	0d	-rum	2a\	.	.	.	1d	o-	1a	-o-	.	.	.	.
.	.	.	.	.	.	.	.	.	.	.	.	8cc\L	.	8ff\L	.
.	.	.	.	.	.	.	.	.	.	.	.	8b-\J	.	8ee\J	.
!	!	!	!	!	!	!	!	!	!	!	!	!	!	!LO:TX:t=P:problem=# below	!
.	.	.	.	2dd\	.	.	.	.	.	.	.	2a\	-o-	2ff#X\	-o-
=76-	=76-	=76-	=76-	=76-	=76-	=76-	=76-	=76-	=76-	=76-	=76-	=76-	=76-	=76-	=76-
!	!	!	!	!	!	!	!	!	!	!	!	!LO:TX:t=P:problem=# below	!	!	!
!	!	!	!	!	!	!	!	!	!	!	!	!LO:N:acc=#	!	!	!
1g	-rum	.	.	1dd	-rum	1dd,>	-rum	1G	-rum	1g	-rum	1bn	-rum	1gg	-rum
=77-	=77-	=77-	=77-	=77-	=77-	=77-	=77-	=77-	=77-	=77-	=77-	=77-	=77-	=77-	=77-
4.f\	Su-	4.a\	Su-	4.cc\	Su-	4.ff\	su-	0r	.	0r	.	0r	.	0r	.
8f\	-per	8a\	-per	8cc\	-per	8ff\	-per	.	.	.	.	.	.	.	.
*custos:f	*	*	*	*	*	*	*	*	*	*	*	*	*	*	*
!LO:LB:g=original	!	!	!	!	!	!	!	!	!	!	!	!	!	!	!
4f\	o-	4a\	o-	4cc\	o-	4ff\	o-	.	.	.	.	.	.	.	.
4e-X\	-mni-	4g\	-mni-	4cc\	-mni-	4cc\	-mni-	.	.	.	.	.	.	.	.
=78-	=78-	=78-	=78-	=78-	=78-	=78-	=78-	=78-	=78-	=78-	=78-	=78-	=78-	=78-	=78-
2d\,>	-a	2f\	-a	2a\	-a	4dd\	-a	.	.	.	.	.	.	.	.
.	.	.	.	.	.	4ee\	.	.	.	.	.	.	.	.	.
2B-/	a-	4b-\	a-	4b-\	a-	2ff\	a-	.	.	.	.	.	.	.	.
.	.	4a\	-ro-	4dd\	-ro-	.	.	.	.	.	.	.	.	.	.
=79-	=79-	=79-	=79-	=79-	=79-	=79-	=79-	=79-	=79-	=79-	=79-	=79-	=79-	=79-	=79-
2c/	-ro-	2g\	-ma-	4.cc\	-ma-	2ee-X\	-ro-	1r	.	1r	.	1r	.	1r	.
.	.	.	.	8b-\	.	.	.	.	.	.	.	.	.	.	.
!	!	!LO:TX:t=P:problem=# below	!	!	!	!	!	!	!	!	!	!	!	!	!
2d\	-ma-	2f#X\	.	2a\	[[-ta-]]	2dd\	-ma-	.	.	.	.	.	.	.	.
*	*	*	*	*custos:b-	*	*	*	*	*	*	*	*	*	*	*
!	!	!	!	!LO:LB:g=original	!	!	!	!	!	!	!	!	!	!	!
=80-	=80-	=80-	=80-	=80-	=80-	=80-	=80-	=80-	=80-	=80-	=80-	=80-	=80-	=80-	=80-
2G/	-ta	2g\	-ta	2b-\	-ta	2dd\	-ta	4.g\	Su-	4.b-\	Su-	4.dd\	Su-	4.gg\	Su-
.	.	.	.	.	.	.	.	8g\	-per	8b-\	-per	8dd\	-per	8gg\	-per
2r	.	2r	.	2r	.	2r	.	4g\	om-	4b-\	om-	4b-y\	om-	8dd\L	om-
.	.	.	.	.	.	.	.	.	.	.	.	.	.	8ee\J	.
.	.	.	.	.	.	.	.	4f\	-ni-	4a\	.	8cc\L	-ni-	4ffny\	-ni-
.	.	.	.	.	.	.	.	.	.	.	.	8dd\J	-a	.	.
*	*	*	*	*	*	*	*	*	*	*	*	*custos:ee-	*	*	*
!	!	!	!	!	!	!	!	!	!	!	!	!LO:LB:g=original	!	!	!
=81-	=81-	=81-	=81-	=81-	=81-	=81-	=81-	=81-	=81-	=81-	=81-	=81-	=81-	=81-	=81-
0r	.	0r	.	0r	.	0r	.	2e-X\	-a	4.g\	-ni-	2ee-X\	a-	2gg\	-a
.	.	.	.	.	.	.	.	.	.	8a\	-a	.	.	.	.
.	.	.	.	.	.	.	.	2B-/	a-	2b-\	.	2dd\	-ro-	2dd\	a-
=82-	=82-	=82-	=82-	=82-	=82-	=82-	=82-	=82-	=82-	=82-	=82-	=82-	=82-	=82-	=82-
.	.	.	.	.	.	.	.	2c/	-ro-	4g\	a-	4.cc\	.	2ee\	-ro-
.	.	.	.	.	.	.	.	.	.	4e/	-ro-	.	.	.	.
.	.	.	.	.	.	.	.	.	.	.	.	8b-\	-ma-	.	.
!	!	!	!	!	!	!	!	!	!	!	!	!	!	!LO:TX:t=P:problem=# below	!
.	.	.	.	.	.	.	.	2d\	-ma-	2a\	-ma-	2a\	.	2ff#X\	-ma-
=83-	=83-	=83-	=83-	=83-	=83-	=83-	=83-	=83-	=83-	=83-	=83-	=83-	=83-	=83-	=83-
!	!	!	!	!	!	!	!	!	!	!	!	!LO:TX:t=P:problem=# below	!	!	!
!	!	!	!	!	!	!	!	!	!	!	!	!LO:N:acc=#	!	!	!
1r	.	1r	.	1r	.	1r	.	1G	-ta	1g	-ta	1bn	-ta	1gg	-ta
*	*	*custos:f	*	*	*	*	*	*	*	*	*	*	*	*custos:ff	*
!	!	!LO:LB:g=original	!	!	!	!	!	!	!	!	!	!	!	!LO:PB:g=original	!
=84-	=84-	=84-	=84-	=84-	=84-	=84-	=84-	=84-	=84-	=84-	=84-	=84-	=84-	=84-	=84-
4.B-/	Su-	4.fny\	Su-	4.b-\	Su-	4.dd\	Su-	4.B-/	Su-	4.f\	Su-	4.dd\	Su-	4.ffny\	Su-
8B-/	-per	8f\	-per	8b-\	-per	8dd\	-per	8B-/	-per	8f\	-per	8dd\	-per	8ff\	-per
*	*	*	*	*	*	*	*	*custos:B-	*	*	*	*	*	*	*
!	!	!	!	!	!	!	!	!LO:LB:g=original	!	!	!	!	!	!	!
4B-/	om-	4f\	om-	4b-\	om-	4b-/	om-	4B-/	om-	4f\	om-	4dd\	om-	4ff\	om-
4f\	-ni-	4f\	-ni-	4cc\	-ni-	4cc\	-ni-	4F/	-ni-	4a\	-ni-	4cc\	-ni-	4ff\	-ni-
=85-	=85-	=85-	=85-	=85-	=85-	=85-	=85-	=85-	=85-	=85-	=85-	=85-	=85-	=85-	=85-
4c/	-a	1g	-a	2cc\	-a	1cc	-a	2.c/	-a	1.g	-a	1cc	-a	1ee	-a
4d\	.	.	.	.	.	.	.	.	.	.	.	.	.	.	.
4eny\	.	.	.	4g/	a-	.	.	.	.	.	.	.	.	.	.
4f\	.	.	.	4a\	-ro-	.	.	8B-/L	.	.	.	.	.	.	.
.	.	.	.	.	.	.	.	8A/J	.	.	.	.	.	.	.
*	*	*	*	*	*	*custos:dd	*	*	*	*	*	*	*	*	*
!	!	!	!	!	!	!LO:LB:g=original	!	!	!	!	!	!	!	!	!
=86-	=86-	=86-	=86-	=86-	=86-	=86-	=86-	=86-	=86-	=86-	=86-	=86-	=86-	=86-	=86-
2.g\	a-	2g\	a-	1b-	-ma-	2dd\	a-	4G/	a-	.	.	2b-y\	a-	2gg\	a-
.	.	.	.	.	.	.	.	4A/	.	.	.	.	.	.	.
.	.	2d/	-ro-	.	.	2dd\	-ro-	4B-/	-ro-	2g\	a-	2.dd\	-ro-	2.gg\	-ro-
8f\L	-ro-	.	.	.	.	.	.	4c/	.	.	.	.	.	.	.
8e\J	.	.	.	.	.	.	.	.	.	.	.	.	.	.	.
*	*	*	*	*	*	*	*	*	*	*custos:a	*	*	*	*	*
!	!	!	!	!	!	!	!	!	!	!LO:LB:g=original	!	!	!	!	!
=87-	=87-	=87-	=87-	=87-	=87-	=87-	=87-	=87-	=87-	=87-	=87-	=87-	=87-	=87-	=87-
1d	-ma-	1d	-ma-	2a\	-ta	1dd	-ma-	1d	-ma-	2a\	-ro-	.	.	.	.
.	.	.	.	.	.	.	.	.	.	.	.	8cc\L	.	8ff\L	-ma-
.	.	.	.	.	.	.	.	.	.	.	.	8b-\J	.	8ee\J	.
!	!	!	!	!	!	!	!	!	!	!	!	!	!	!LO:TX:t=P:problem=# below	!
.	.	.	.	2dd\	.	.	.	.	.	2a\	-ma-	2a\	-ma-	2ff#X\	-ta
=88-	=88-	=88-	=88-	=88-	=88-	=88-	=88-	=88-	=88-	=88-	=88-	=88-	=88-	=88-	=88-
!	!	!	!	!LO:TX:t=P:problem=# below	!	!	!	!	!	!	!	!LO:TX:t=P:problem=# below	!	!	!
!	!	!	!	!LO:N:acc=#	!	!	!	!	!	!	!	!LO:N:acc=#	!	!	!
2g\	-ta	2d/	-ta	2bn\,>	.	2dd\,>	-ta	2G/,>	-ta	2g\,>	-ta	2bn\	-ta	2gg\,>	.
4c/	a-	1g\	a-	2.g/	Su-	4cc\	su-	1c\	a-	1g\	a-	4ee-X\	Su-	4gg\	Su-
4d\	.	.	.	.	.	4dd\	-per	.	.	.	.	4dd\	-per	4ffny\	-per
=89-	=89-	=89-	=89-	=89-	=89-	=89-	=89-	=89-	=89-	=89-	=89-	=89-	=89-	=89-	=89-
!LO:TX:a:t=sic&colon;s=4e-	!	!	!	!	!	!	!	!	!	!	!	!	!	!	!
4e\	.	.	.	.	.	2ee-X\	o-	.	.	.	.	2cc\	om-	2ee-X\	om-
4f\	.	.	.	4a\	-per	.	.	.	.	.	.	.	.	.	.
2g\	-ro-	2g\	-ro-	4.b-y\	om-	2b-/	-mni-	2G/	-ro-	2g\	-ro-	2dd\	-ni-	2dd\	-ni-
.	.	.	.	8b-\	-ni-	.	.	.	.	.	.	.	.	.	.
=90-	=90-	=90-	=90-	=90-	=90-	=90-	=90-	=90-	=90-	=90-	=90-	=90-	=90-	=90-	=90-
0c	-ma-	0g	-ma-	2cc\	-a	2cc\	-a	0c	-ma-	0g	-ma-	2ee-X\	-a	2cc\,>	-a
.	.	.	.	2cc\	a-	2g/	a-	.	.	.	.	2dd\	a-	2dd\	a-
=91-	=91-	=91-	=91-	=91-	=91-	=91-	=91-	=91-	=91-	=91-	=91-	=91-	=91-	=91-	=91-
.	.	.	.	2.g/	-ro-	2.cc\	-ro-	.	.	.	.	2.cc\	-ro-	2.ee-X\	-ro-
.	.	.	.	4a\	-ma-	4cc\	-ma-	.	.	.	.	4cc\	-ma-	4ee-\	-ma-
=92-	=92-	=92-	=92-	=92-	=92-	=92-	=92-	=92-	=92-	=92-	=92-	=92-	=92-	=92-	=92-
!	!	!	!	!LO:N:acc=#	!	!	!	!	!	!	!	!LO:N:acc=#	!	!	!
0g;;	-ta	0g;;	-ta	0bn;;	-ta	0dd;;	-ta	0G;;	-ta	0g;;	-ta	0bn;;	-ta	0dd;;	-ta
=-	=-	=-	=-	=-	=-	=-	=-	=-	=-	=-	=-	=-	=-	=-	=-
*-	*-	*-	*-	*-	*-	*-	*-	*-	*-	*-	*-	*-	*-	*-	*-
!!!system-decoration: [(s1,s2,s3,s4)][(s5,s6,s7,s8)]
!!!ENC: Anastazja Marusiak
!!!END: 2021-10-04
!!!EED: Jędrzej Mróz
!!!ESR: 2021-10-10
!!!RDF**kern: > = above
!!!RDF**kern: < = below
